**kern	**silbe	**harmony	**phrase	**leadinstrument	**rhyme	**timestamp	**harte
*ICvox	*	*M4/4	*	*	*	*	*M4/4
*VRlead	*	*	*	*	*	*	*
*Hstimme	*	*	*	*	*	*	*
*E:	*	*E:	*	*	*	*	*E:
*M4/4	*	*	*	*	*	*	*
*clefG2	*	*	*	*	*	*	*
r;	.	1r;	.	r	.	0	N.C.
=1	=1	=1	=1	=1	=1	=1	=1
*>Letter>A	*>Letter>A	*>Letter>A	*>Letter>A	*>Letter>A	*>Letter>A	*>Letter>A	*>Letter>A
*>Label>Intro	*>Label>Intro	*>Label>Intro	*>Label>Intro	*>Label>Intro	*>Label>Intro	*>Label>Intro	*>Label>Intro
1r	.	1N	newline	guitar	.	0.488	N.C.
=2	=2	=2	=2	=2	=2	=2	=2
1r	.	1N	.	guitar	.	2.281	N.C.
=3	=3	=3	=3	=3	=3	=3	=3
1r	.	1EM	.	guitar	.	4.075	E:1
=4	=4	=4	=4	=4	=4	=4	=4
1r	.	1EM	.	guitar	.	5.869	E:1
=5	=5	=5	=5	=5	=5	=5	=5
1r	.	1EM	newline	guitar	.	7.663	E:1
=6	=6	=6	=6	=6	=6	=6	=6
1r	.	1EM	.	guitar	.	9.409	E:1
=7	=7	=7	=7	=7	=7	=7	=7
*M2/4	*	*M2/4	*M2/4	*M2/4	*	*M2/4	*M2/4
2r	.	2EM	.	guitar	.	11.155	E:1
=8	=8	=8	=8	=8	=8	=8	=8
*M4/4	*	*M4/4	*M4/4	*M4/4	*	*M4/4	*M4/4
1r	.	1EM	newline	guitar	.	12.028	E:1
=9	=9	=9	=9	=9	=9	=9	=9
1r	.	1EM	.	guitar	.	13.886	E:1
=10	=10	=10	=10	=10	=10	=10	=10
1r	.	1EM	.	guitar	.	15.743	E:1
=11	=11	=11	=11	=11	=11	=11	=11
*>Letter>B	*>Letter>B	*>Letter>B	*>Letter>B	*>Letter>B	*>Letter>B	*>Letter>B	*>Letter>B
*>Label>Interlude	*>Label>Interlude	*>Label>Interlude	*>Label>Interlude	*>Label>Interlude	*>Label>Interlude	*>Label>Interlude	*>Label>Interlude
1r	.	1EM	newline	guitar	.	17.601	E:1
=12	=12	=12	=12	=12	=12	=12	=12
1r	.	1AM	.	guitar	.	18.861	A:1
=13	=13	=13	=13	=13	=13	=13	=13
1r	.	1EM	.	guitar	.	20.121	E:1
=14	=14	=14	=14	=14	=14	=14	=14
1r	.	1AM	.	guitar	.	21.381	A:1
=15	=15	=15	=15	=15	=15	=15	=15
1r	.	1EM	newline	guitar	.	22.641	E:1
=16	=16	=16	=16	=16	=16	=16	=16
1r	.	1AM	.	guitar	.	23.975	A:1
=17	=17	=17	=17	=17	=17	=17	=17
1r	.	1EM	.	guitar	.	25.31	E:1
=18	=18	=18	=18	=18	=18	=18	=18
1r	.	1AM	.	guitar	.	26.644	A:1
=19	=19	=19	=19	=19	=19	=19	=19
*>Letter>C	*>Letter>C	*>Letter>C	*>Letter>C	*>Letter>C	*>Letter>C	*>Letter>C	*>Letter>C
*>Label>Instrumental	*>Label>Instrumental	*>Label>Instrumental	*>Label>Instrumental	*>Label>Instrumental	*>Label>Instrumental	*>Label>Instrumental	*>Label>Instrumental
1r	.	1EM	newline	guitar	.	27.979	E:maj
=20	=20	=20	=20	=20	=20	=20	=20
1r	.	1BM	.	guitar	.	29.714	B:maj
=21	=21	=21	=21	=21	=21	=21	=21
1r	.	1G#mm	.	guitar	.	31.449	G#:min7
=22	=22	=22	=22	=22	=22	=22	=22
1r	.	2.AM	.	guitar	.	33.184	A:maj
.	.	4BM	.	guitar	.	34.486	B:maj
=23	=23	=23	=23	=23	=23	=23	=23
1r	.	1EM	newline	guitar	.	34.92	E:maj
=24	=24	=24	=24	=24	=24	=24	=24
1r	.	1BM	.	guitar	.	36.701	B:maj
=25	=25	=25	=25	=25	=25	=25	=25
1r	.	1G#mm	.	guitar	.	38.483	G#:min7
=26	=26	=26	=26	=26	=26	=26	=26
2r	.	2.AM	.	guitar	.	40.265	A:maj
4r	.	.	.	.	.	.	.
8r	.	4BM	.	guitar	.	41.601	B:maj
8e	Be-	.	.	.	.	.	.
=27	=27	=27	=27	=27	=27	=27	=27
*>Letter>C	*>Letter>C	*>Letter>C	*>Letter>C	*>Letter>C	*>Letter>C	*>Letter>C	*>Letter>C
*>Label>Verse	*>Label>Verse	*>Label>Verse	*>Label>Verse	*>Label>Verse	*>Label>Verse	*>Label>Verse	*>Label>Verse
4g#	-gin	1EM	newline	voice	.	42.046	E:maj
8g#	the	.	.	.	.	.	.
4g#	day	.	.	.	.	.	.
8f#	with	.	.	.	.	.	.
8e	a	.	.	.	.	.	.
[8f#	friend-	.	.	.	.	.	.
=28	=28	=28	=28	=28	=28	=28	=28
8f#]	_	1BM	.	voice	.	43.812	B:maj
4g#	-ly	.	.	.	.	.	.
8f#	voice	.	.	.	.	.	.
4e	_	.	.	.	.	.	.
8d#	A	.	.	.	.	.	.
8B	com-	.	.	.	.	.	.
=29	=29	=29	=29	=29	=29	=29	=29
4d#	-pan-	1G#mm	.	voice	.	45.578	G#:min7
8d#	-ion	.	.	.	.	.	.
4d#	un-	.	.	.	.	.	.
4d#	-ob-	.	.	.	.	.	.
[8e	-tru-	.	.	.	(A	.	.
=30	=30	=30	=30	=30	=30	=30	=30
8e]	_	2.AM	.	voice	.	47.344	A:maj
4c#	-sive	.	.	.	a)	.	.
8r	.	.	.	.	.	.	.
2r	.	.	.	.	.	.	.
.	.	4BM	.	voice	.	48.669	B:maj
=31	=31	=31	=31	=31	=31	=31	=31
4g#	Plays	1EM	newline	voice	.	49.11	E:maj
4g#	that	.	.	.	.	.	.
8g#	song	.	.	.	.	.	.
8f#	_	.	.	.	.	.	.
4e	that's	.	.	.	.	.	.
=32	=32	=32	=32	=32	=32	=32	=32
4f#	so	1BM	.	voice	.	50.881	B:maj
8f#	e-	.	.	.	.	.	.
4g#	-lus-	.	.	.	(A	.	.
8f#	-ive	.	.	.	a)	.	.
8e	and	.	.	.	.	.	.
8c#	the	.	.	.	.	.	.
=33	=33	=33	=33	=33	=33	=33	=33
4d#	ma-	1G#mm	.	voice	.	52.651	G#:min7
8d#	-gic	.	.	.	.	.	.
8f#	mu-	.	.	.	(A	.	.
8d#	_	.	.	.	.	.	.
8d#	-sic	.	.	.	a)	.	.
8d#	makes	.	.	.	.	.	.
[8f#	your	.	.	.	.	.	.
=34	=34	=34	=34	=34	=34	=34	=34
8f#]	_	2.AM	.	voice	.	54.422	A:maj
8e	morn-	.	.	.	.	.	.
8e	-ing	.	.	.	.	.	.
4e	mood	.	.	.	B	.	.
8r	.	.	.	.	.	.	.
4r	.	4BM	.	voice	.	55.75	B:maj
=35	=35	=35	=35	=35	=35	=35	=35
1r	.	1EM	newline	guitar	.	56.192	E:maj
=36	=36	=36	=36	=36	=36	=36	=36
1r	.	1BM	.	guitar	.	57.98	B:maj
=37	=37	=37	=37	=37	=37	=37	=37
1r	.	1G#mm	.	guitar	.	59.768	G#:min7
=38	=38	=38	=38	=38	=38	=38	=38
1r	.	2.AM	.	guitar	.	61.556	A:maj
.	.	4BM	.	guitar	.	62.897	B:maj
=39	=39	=39	=39	=39	=39	=39	=39
*>Letter>C	*>Letter>C	*>Letter>C	*>Letter>C	*>Letter>C	*>Letter>C	*>Letter>C	*>Letter>C
*>Label>Verse	*>Label>Verse	*>Label>Verse	*>Label>Verse	*>Label>Verse	*>Label>Verse	*>Label>Verse	*>Label>Verse
8g#	Off	1EM	newline	voice	.	63.344	E:maj
8g#	on	.	.	.	.	.	.
8g#	your	.	.	.	.	.	.
4g#	way	.	.	.	.	.	.
8f#	on	.	.	.	.	.	.
8e	the	.	.	.	.	.	.
[8f#	o-	.	.	.	.	.	.
=40	=40	=40	=40	=40	=40	=40	=40
8f#]	_	1BM	.	voice	.	65.118	B:maj
8f#	-pen	.	.	.	.	.	.
8g#	_	.	.	.	.	.	.
4.f#	road	.	.	.	.	.	.
8f#	There	.	.	.	.	.	.
8B	is	.	.	.	.	.	.
=41	=41	=41	=41	=41	=41	=41	=41
8d#	ma-	1G#mm	.	voice	.	66.892	G#:min7
4d#	-gic	.	.	.	.	.	.
4d#	at	.	.	.	.	.	.
4d#	your	.	.	.	.	.	.
[8e	fing-	.	.	.	(C	.	.
=42	=42	=42	=42	=42	=42	=42	=42
8e]	_	2.AM	.	voice	.	68.667	A:maj
4e	-ers	.	.	.	c)	.	.
8r	.	.	.	.	.	.	.
2r	.	.	.	.	.	.	.
.	.	4BM	.	voice	.	69.997	B:maj
=43	=43	=43	=43	=43	=43	=43	=43
8r	.	1EM	newline	voice	.	70.441	E:maj
8g#	For	.	.	.	.	.	.
8g#	the	.	.	.	.	.	.
4g#	spi-	.	.	.	.	.	.
8f#	-rit	.	.	.	.	.	.
8e	_	.	.	.	.	.	.
[8f#	e-	.	.	.	.	.	.
=44	=44	=44	=44	=44	=44	=44	=44
8f#]	_	1BM	.	voice	.	72.203	B:maj
4f#	-ver	.	.	.	.	.	.
4d#	ling-	.	.	.	(C	.	.
8c#	-ers	.	.	.	c)	.	.
8B	Un-	.	.	.	.	.	.
8B	-de-	.	.	.	.	.	.
=45	=45	=45	=45	=45	=45	=45	=45
4d#	-man-	1G#mm	.	voice	.	73.965	G#:min7
8d#	-ding	.	.	.	.	.	.
4f#	con-	.	.	.	.	.	.
8d#	-tact	.	.	.	.	.	.
8d#	in	.	.	.	.	.	.
8f#	your	.	.	.	.	.	.
=46	=46	=46	=46	=46	=46	=46	=46
8e	_	2.AM	.	voice	.	75.727	A:maj
8e	ha-	.	.	.	.	.	.
8e	-ppy	.	.	.	.	.	.
4e	sol-	.	.	.	.	.	.
8c#	-i-	.	.	.	.	.	.
8c#	-tude	4BM	.	voice	B	77.049	B:maj
8B	_	.	.	.	.	.	.
=47	=47	=47	=47	=47	=47	=47	=47
1r	.	1EM	newline	guitar	.	77.49	E:maj
=48	=48	=48	=48	=48	=48	=48	=48
1r	.	1BM	.	guitar	.	79.282	B:maj
=49	=49	=49	=49	=49	=49	=49	=49
1r	.	1G#mm	.	guitar	.	81.075	G#:min7
=50	=50	=50	=50	=50	=50	=50	=50
1r	.	2.AM	.	guitar	.	82.868	A:maj
.	.	4BM	.	guitar	.	84.212	B:maj
=51	=51	=51	=51	=51	=51	=51	=51
*>Letter>A	*>Letter>A	*>Letter>A	*>Letter>A	*>Letter>A	*>Letter>A	*>Letter>A	*>Letter>A
*>Label>Bridge	*>Label>Bridge	*>Label>Bridge	*>Label>Bridge	*>Label>Bridge	*>Label>Bridge	*>Label>Bridge	*>Label>Bridge
1r	.	1EM	newline	guitar	.	84.661	E:1
=52	=52	=52	=52	=52	=52	=52	=52
1r	.	1EM	.	guitar	.	86.427	E:1
=53	=53	=53	=53	=53	=53	=53	=53
1r	.	1EM	.	guitar	.	88.193	E:1
=54	=54	=54	=54	=54	=54	=54	=54
2r	.	1EM	.	guitar	.	89.96	E:1
4r	.	.	.	.	.	.	.
8r	.	.	.	.	.	.	.
8g#	In-	.	.	.	.	.	.
=55	=55	=55	=55	=55	=55	=55	=55
8g#	-vi-	1EM	newline	voice	.	91.726	E:1
8g#	-si-	.	.	.	.	.	.
8g#	-ble	.	.	.	.	.	.
4f#	air-	.	.	.	.	.	.
4.g#	-waves	.	.	.	.	.	.
=56	=56	=56	=56	=56	=56	=56	=56
8f#	Cra-	1EM	.	voice	D	93.489	E:1
8f#	-ckle	.	.	.	.	.	.
8g#	with	.	.	.	.	.	.
4f#	life	.	.	.	.	.	.
8r	.	.	.	.	.	.	.
4r	.	.	.	.	.	.	.
=57	=57	=57	=57	=57	=57	=57	=57
4b	Bright	1EM	.	voice	.	95.252	E:1
8b	an-	.	.	.	.	.	.
4a	-tenn-	.	.	.	.	.	.
4b	-ae	.	.	.	.	.	.
[8g#	bri-	.	.	.	.	.	.
=58	=58	=58	=58	=58	=58	=58	=58
8g#]	_	1EM	.	voice	.	97.015	E:1
8a	-stle	.	.	.	.	.	.
8g#	with	.	.	.	.	.	.
8f#	the	.	.	.	.	.	.
8e	en-	.	.	.	.	.	.
8f#	-er-	.	.	.	.	.	.
4e	-gy	.	.	.	C	.	.
=59	=59	=59	=59	=59	=59	=59	=59
1r	.	1EM	newline	guitar	.	98.778	E:1
=60	=60	=60	=60	=60	=60	=60	=60
2r	.	1EM	.	guitar	.	100.553	E:1
4r	.	.	.	.	.	.	.
8r	.	.	.	.	.	.	.
8g#	E-	.	.	.	.	.	.
=61	=61	=61	=61	=61	=61	=61	=61
8g#	-mot-	1EM	newline	voice	.	102.329	E:1
8g#	-tion-	.	.	.	.	.	.
8g#	-al	.	.	.	.	.	.
4f#	feed-	.	.	.	.	.	.
8g#	-back	.	.	.	D	.	.
8r	.	.	.	.	.	.	.
16e	on	.	.	.	.	.	.
16e	a	.	.	.	.	.	.
=62	=62	=62	=62	=62	=62	=62	=62
4f#	time-	1EM	.	voice	.	104.094	E:1
8g#	-less	.	.	.	.	.	.
4g#	wave-	.	.	.	.	.	.
4f#	-length	.	.	.	.	.	.
8r	.	.	.	.	.	.	.
=63	=63	=63	=63	=63	=63	=63	=63
8b	Bear-	1EM	.	voice	.	105.858	E:1
8b	-ing	.	.	.	.	.	.
8b	a	.	.	.	.	.	.
4a	gift	.	.	.	.	.	.
8b	be-	.	.	.	.	.	.
8b	-yond	.	.	.	.	.	.
8a	_	.	.	.	.	.	.
=64	=64	=64	=64	=64	=64	=64	=64
4a	price	1EM	.	voice	.	107.623	E:1
8r	.	.	.	.	.	.	.
[8e	Al-	.	.	.	.	.	.
8e]	_	.	.	.	.	.	.
8f#	-most	.	.	.	.	.	.
4e	_	.	.	.	.	.	.
=65	=65	=65	=65	=65	=65	=65	=65
2e	free	1EM	newline	guitar	C	109.388	E:1
2r	.	.	.	.	.	.	.
=66	=66	=66	=66	=66	=66	=66	=66
1r	.	1EM	.	guitar	.	111.142	E:1
=67	=67	=67	=67	=67	=67	=67	=67
*>Letter>C	*>Letter>C	*>Letter>C	*>Letter>C	*>Letter>C	*>Letter>C	*>Letter>C	*>Letter>C
*>Label>Verse	*>Label>Verse	*>Label>Verse	*>Label>Verse	*>Label>Verse	*>Label>Verse	*>Label>Verse	*>Label>Verse
8g#	All	1EM	newline	voice	.	112.895	E:maj
8g#	this	.	.	.	.	.	.
8g#	ma-	.	.	.	.	.	.
4g#	-chin-	.	.	.	.	.	.
8f#	-er-	.	.	.	.	.	.
4e	-y	.	.	.	.	.	.
=68	=68	=68	=68	=68	=68	=68	=68
8f#	mak-	1BM	.	voice	.	114.687	B:maj
8f#	-ing	.	.	.	.	.	.
8f#	mo-	.	.	.	.	.	.
8e	-dern	.	.	.	.	.	.
4g#	mu-	.	.	.	.	.	.
8f#	-sic	.	.	.	.	.	.
8B	can	.	.	.	.	.	.
=69	=69	=69	=69	=69	=69	=69	=69
4d#	still	1G#mm	.	voice	.	116.479	G#:min7
4d#	be	.	.	.	.	.	.
8d#	o-	.	.	.	.	.	.
4d#	-pen-	.	.	.	.	.	.
8e	-heart-	.	.	.	(E	.	.
=70	=70	=70	=70	=70	=70	=70	=70
4c#	-ed	2.AM	.	voice	e)	118.271	A:maj
4r	.	.	.	.	.	.	.
2r	.	.	.	.	.	.	.
.	.	4BM	.	voice	.	119.615	B:maj
=71	=71	=71	=71	=71	=71	=71	=71
8g#	Not	1EM	newline	voice	.	120.063	E:maj
8g#	so	.	.	.	.	.	.
8g#	cold-	.	.	.	.	.	.
8g#	-ly	.	.	.	.	.	.
8g#	char-	.	.	.	(E	.	.
8f#	-ted	.	.	.	e)	.	.
8e	it's	.	.	.	.	.	.
[8f#	rea-	.	.	.	.	.	.
=72	=72	=72	=72	=72	=72	=72	=72
8f#]	_	1BM	.	voice	.	121.849	B:maj
8f#	-lly	.	.	.	.	.	.
8f#	just	.	.	.	.	.	.
8e	a	.	.	.	.	.	.
8g#	ques-	.	.	.	.	.	.
8g#	-tion	.	.	.	.	.	.
8f#	of	.	.	.	.	.	.
8B	your	.	.	.	.	.	.
=73	=73	=73	=73	=73	=73	=73	=73
8g#	hon-	1G#mm	.	voice	.	123.635	G#:min7
8f#	-est-	.	.	.	.	.	.
4f#	-y	.	.	.	C	.	.
8r	.	.	.	.	.	.	.
4g#	Yeah	.	.	.	.	.	.
8g#	your	.	.	.	.	.	.
=74	=74	=74	=74	=74	=74	=74	=74
8g#	hon-	2.AM	.	voice	.	125.42	A:maj
8f#	-est-	.	.	.	.	.	.
4f#	-y	.	.	.	C	.	.
2r	.	.	.	.	.	.	.
.	.	4BM	.	voice	.	126.76	B:maj
=75	=75	=75	=75	=75	=75	=75	=75
*>Letter>C	*>Letter>C	*>Letter>C	*>Letter>C	*>Letter>C	*>Letter>C	*>Letter>C	*>Letter>C
*>Label>Verse	*>Label>Verse	*>Label>Verse	*>Label>Verse	*>Label>Verse	*>Label>Verse	*>Label>Verse	*>Label>Verse
8r	.	1EM	newline	voice	.	127.206	E:maj
4g#	One	.	.	.	.	.	.
4g#	likes	.	.	.	.	.	.
8f#	to	.	.	.	.	.	.
8e	be-	.	.	.	.	.	.
8g#	-lieve	.	.	.	.	.	.
=76	=76	=76	=76	=76	=76	=76	=76
4f#	_	1BM	.	voice	.	128.975	B:maj
8f#	in	.	.	.	.	.	.
8e	the	.	.	.	.	.	.
8g#	free-	.	.	.	.	.	.
8g#	-dom	.	.	.	.	.	.
8f#	of	.	.	.	.	.	.
[8f#	mus-	.	.	.	(A	.	.
=77	=77	=77	=77	=77	=77	=77	=77
8f#]	_	1G#mm	.	voice	.	130.744	G#:min7
8e	-ic	.	.	.	a)	.	.
4r	.	.	.	.	.	.	.
2r	.	.	.	.	.	.	.
=78	=78	=78	=78	=78	=78	=78	=78
2r	.	2.AM	.	voice	.	132.512	A:maj
4r	.	.	.	.	.	.	.
8r	.	4BM	.	voice	.	133.839	B:maj
8f#	But	.	.	.	.	.	.
=79	=79	=79	=79	=79	=79	=79	=79
8g#	gli-	1EM	newline	voice	.	134.281	E:maj
8g#	-tter-	.	.	.	.	.	.
8g#	-ing	.	.	.	.	.	.
4g#	pri-	.	.	.	(F	.	.
8f#	-zes	.	.	.	f)	.	.
8e	and	.	.	.	.	.	.
[8f#	end-	.	.	.	.	.	.
=80	=80	=80	=80	=80	=80	=80	=80
8f#]	_	1BM	.	voice	.	136.051	B:maj
8f#	-less	.	.	.	.	.	.
8d#	com-	.	.	.	.	.	.
8d#	-pro-	.	.	.	.	.	.
8c#	-mis-	.	.	.	(F	.	.
4B	-es	.	.	.	f)	.	.
8r	.	.	.	.	.	.	.
=81	=81	=81	=81	=81	=81	=81	=81
8g#	Sha-	1G#mm	.	voice	.	137.82	G#:min7
8g#	-tter	.	.	.	.	.	.
8f#	the	.	.	.	.	.	.
8e	i-	.	.	.	.	.	.
8f#	-llu-	.	.	.	(A	.	.
8g#	-sion	.	.	.	a)	.	.
8f#	of	.	.	.	.	.	.
8e	in-	.	.	.	.	.	.
=82	=82	=82	=82	=82	=82	=82	=82
8f#	-teg-	2.AM	.	voice	.	139.59	A:maj
4e	-ri-	.	.	.	.	.	.
4e	-ty	.	.	.	.	.	.
4.e	Yeah	.	.	.	.	.	.
.	.	4BM	.	voice	.	140.917	B:maj
=83	=83	=83	=83	=83	=83	=83	=83
1r	.	1EM	newline	guitar	.	141.359	E:maj
=84	=84	=84	=84	=84	=84	=84	=84
1r	.	1BM	.	guitar	.	143.131	B:maj
=85	=85	=85	=85	=85	=85	=85	=85
1r	.	1G#mm	.	guitar	.	144.902	G#:min7
=86	=86	=86	=86	=86	=86	=86	=86
1r	.	2.AM	.	guitar	.	146.674	A:maj
.	.	4BM	.	guitar	.	148.002	B:maj
=87	=87	=87	=87	=87	=87	=87	=87
*>Letter>A	*>Letter>A	*>Letter>A	*>Letter>A	*>Letter>A	*>Letter>A	*>Letter>A	*>Letter>A
*>Label>Bridge	*>Label>Bridge	*>Label>Bridge	*>Label>Bridge	*>Label>Bridge	*>Label>Bridge	*>Label>Bridge	*>Label>Bridge
1r	.	1EM	newline	guitar	.	148.445	E:1
=88	=88	=88	=88	=88	=88	=88	=88
1r	.	1EM	.	guitar	.	150.214	E:1
=89	=89	=89	=89	=89	=89	=89	=89
1r	.	1EM	.	guitar	.	151.984	E:1
=90	=90	=90	=90	=90	=90	=90	=90
2r	.	1EM	.	guitar	.	153.753	E:1
4r	.	.	.	.	.	.	.
8r	.	.	.	.	.	.	.
8g#	In-	.	.	.	.	.	.
=91	=91	=91	=91	=91	=91	=91	=91
8g#	-vi-	1EM	newline	voice	.	155.522	E:1
8g#	-si-	.	.	.	.	.	.
8g#	-ble	.	.	.	.	.	.
4f#	air-	.	.	.	.	.	.
4.g#	-waves	.	.	.	.	.	.
=92	=92	=92	=92	=92	=92	=92	=92
8f#	Cra-	1EM	.	voice	D	157.287	E:1
8f#	-ckle	.	.	.	.	.	.
8g#	with	.	.	.	.	.	.
4f#	life	.	.	.	.	.	.
8r	.	.	.	.	.	.	.
4r	.	.	.	.	.	.	.
=93	=93	=93	=93	=93	=93	=93	=93
4b	Bright	1EM	.	voice	.	159.052	E:1
8b	an-	.	.	.	.	.	.
4a	-tenn-	.	.	.	.	.	.
4b	-ae	.	.	.	.	.	.
[8g#	bri-	.	.	.	.	.	.
=94	=94	=94	=94	=94	=94	=94	=94
8g#]	_	1EM	.	voice	.	160.817	E:1
8a	-stle	.	.	.	.	.	.
8g#	with	.	.	.	.	.	.
8f#	the	.	.	.	.	.	.
8e	en-	.	.	.	.	.	.
8f#	-er-	.	.	.	.	.	.
4e	-gy	.	.	.	C	.	.
=95	=95	=95	=95	=95	=95	=95	=95
1r	.	1EM	newline	guitar	.	162.582	E:1
=96	=96	=96	=96	=96	=96	=96	=96
2r	.	1EM	.	guitar	.	164.35	E:1
4r	.	.	.	.	.	.	.
8r	.	.	.	.	.	.	.
8g#	E-	.	.	.	.	.	.
=97	=97	=97	=97	=97	=97	=97	=97
8g#	-mot-	1EM	newline	voice	.	166.118	E:1
8g#	-tion-	.	.	.	.	.	.
8g#	-al	.	.	.	.	.	.
4f#	feed-	.	.	.	.	.	.
8g#	-back	.	.	.	D	.	.
8r	.	.	.	.	.	.	.
16e	on	.	.	.	.	.	.
16e	a	.	.	.	.	.	.
=98	=98	=98	=98	=98	=98	=98	=98
4f#	time-	1EM	.	voice	.	167.89	E:1
8g#	-less	.	.	.	.	.	.
4g#	wave-	.	.	.	.	.	.
4f#	-length	.	.	.	.	.	.
8r	.	.	.	.	.	.	.
=99	=99	=99	=99	=99	=99	=99	=99
8b	Bear-	1EM	.	voice	.	169.663	E:1
8b	-ing	.	.	.	.	.	.
8b	a	.	.	.	.	.	.
4a	gift	.	.	.	.	.	.
8b	be-	.	.	.	.	.	.
8b	-yond	.	.	.	.	.	.
8a	_	.	.	.	.	.	.
=100	=100	=100	=100	=100	=100	=100	=100
4a	price	1EM	.	voice	.	171.436	E:1
8r	.	.	.	.	.	.	.
[8e	Al-	.	.	.	.	.	.
8e]	_	.	.	.	.	.	.
8f#	-most	.	.	.	.	.	.
4e	_	.	.	.	.	.	.
=101	=101	=101	=101	=101	=101	=101	=101
*>Letter>D	*>Letter>D	*>Letter>D	*>Letter>D	*>Letter>D	*>Letter>D	*>Letter>D	*>Letter>D
*>Label>Interlude	*>Label>Interlude	*>Label>Interlude	*>Label>Interlude	*>Label>Interlude	*>Label>Interlude	*>Label>Interlude	*>Label>Interlude
4e	free	1EM	newline	guitar	C	173.209	E:1
4r	.	.	.	.	.	.	.
2r	.	.	.	.	.	.	.
=102	=102	=102	=102	=102	=102	=102	=102
*M3/4	*	*M3/4	*M3/4	*M3/4	*	*M3/4	*M3/4
2.r	.	2.EM	.	guitar	.	174.964	E:1
=103	=103	=103	=103	=103	=103	=103	=103
*M4/4	*	*M4/4	*M4/4	*M4/4	*	*M4/4	*M4/4
1r	.	1DM	.	guitar	.	176.28	D:maj/3
=104	=104	=104	=104	=104	=104	=104	=104
*M3/4	*	*M3/4	*M3/4	*M3/4	*	*M3/4	*M3/4
2.r	.	2.DM	.	guitar	.	178.035	D:maj/3
=105	=105	=105	=105	=105	=105	=105	=105
*M4/4	*	*M4/4	*M4/4	*M4/4	*	*M4/4	*M4/4
1r	.	1EM	newline	guitar	.	179.351	E:maj/3
=106	=106	=106	=106	=106	=106	=106	=106
*M3/4	*	*M3/4	*M3/4	*M3/4	*	*M3/4	*M3/4
2.r	.	2.EM	.	guitar	.	181.128	E:maj/3
=107	=107	=107	=107	=107	=107	=107	=107
*M4/4	*	*M4/4	*M4/4	*M4/4	*	*M4/4	*M4/4
1r	.	1DM	.	guitar	.	182.461	D:maj/3
=108	=108	=108	=108	=108	=108	=108	=108
1r	.	1DM	.	guitar	.	184.238	D:maj/3
=109	=109	=109	=109	=109	=109	=109	=109
1r	.	1EM	newline	guitar	.	186.015	E:1
=110	=110	=110	=110	=110	=110	=110	=110
*M3/4	*	*M3/4	*M3/4	*M3/4	*	*M3/4	*M3/4
2.r	.	2.EM	.	guitar	.	187.762	E:1
=111	=111	=111	=111	=111	=111	=111	=111
*M4/4	*	*M4/4	*M4/4	*M4/4	*	*M4/4	*M4/4
1r	.	1DM	.	guitar	.	189.072	D:maj/3
=112	=112	=112	=112	=112	=112	=112	=112
*M3/4	*	*M3/4	*M3/4	*M3/4	*	*M3/4	*M3/4
2.r	.	2.DM	.	guitar	.	190.819	D:maj/3
=113	=113	=113	=113	=113	=113	=113	=113
*M4/4	*	*M4/4	*M4/4	*M4/4	*	*M4/4	*M4/4
1r	.	1EM	newline	guitar	.	192.129	E:maj/3
=114	=114	=114	=114	=114	=114	=114	=114
*M3/4	*	*M3/4	*M3/4	*M3/4	*	*M3/4	*M3/4
2.r	.	2.EM	.	guitar	.	193.885	E:maj/3
=115	=115	=115	=115	=115	=115	=115	=115
*M4/4	*	*M4/4	*M4/4	*M4/4	*	*M4/4	*M4/4
1r	.	1DM	.	guitar	.	195.203	D:maj/3
=116	=116	=116	=116	=116	=116	=116	=116
1r	.	1DM	.	guitar	.	196.96	D:maj/3
=117	=117	=117	=117	=117	=117	=117	=117
*>Letter>C	*>Letter>C	*>Letter>C	*>Letter>C	*>Letter>C	*>Letter>C	*>Letter>C	*>Letter>C
*>Label>Instrumental	*>Label>Instrumental	*>Label>Instrumental	*>Label>Instrumental	*>Label>Instrumental	*>Label>Instrumental	*>Label>Instrumental	*>Label>Instrumental
1r	.	1EM	newline	guitar	.	198.716	E:maj
=118	=118	=118	=118	=118	=118	=118	=118
1r	.	1BM	.	guitar	.	200.494	B:maj
=119	=119	=119	=119	=119	=119	=119	=119
1r	.	1G#mm	.	guitar	.	202.271	G#:min7
=120	=120	=120	=120	=120	=120	=120	=120
1r	.	2.AM	.	guitar	.	204.048	A:maj
.	.	4BM	.	guitar	.	205.381	B:maj
=121	=121	=121	=121	=121	=121	=121	=121
1r	.	1EM	newline	guitar	.	205.825	E:maj
=122	=122	=122	=122	=122	=122	=122	=122
1r	.	1BM	.	guitar	.	207.624	B:maj
=123	=123	=123	=123	=123	=123	=123	=123
1r	.	1G#mm	.	guitar	.	209.423	G#:min7
=124	=124	=124	=124	=124	=124	=124	=124
1r	.	2.AM	.	guitar	.	211.221	A:maj
.	.	4BM	.	guitar	.	212.57	B:maj
=125	=125	=125	=125	=125	=125	=125	=125
*>Letter>A	*>Letter>A	*>Letter>A	*>Letter>A	*>Letter>A	*>Letter>A	*>Letter>A	*>Letter>A
*>Label>Interlude	*>Label>Interlude	*>Label>Interlude	*>Label>Interlude	*>Label>Interlude	*>Label>Interlude	*>Label>Interlude	*>Label>Interlude
1r	.	1EM	newline	guitar	.	213.02	E:1
=126	=126	=126	=126	=126	=126	=126	=126
1r	.	1EM	.	guitar	.	214.645	E:1
=127	=127	=127	=127	=127	=127	=127	=127
1r	.	1N	.	guitar	.	216.271	N.C.
=128	=128	=128	=128	=128	=128	=128	=128
1r	.	1N	.	guitar	.	217.896	N.C.
=129	=129	=129	=129	=129	=129	=129	=129
*>Letter>B	*>Letter>B	*>Letter>B	*>Letter>B	*>Letter>B	*>Letter>B	*>Letter>B	*>Letter>B
*>Label>Instrumental	*>Label>Instrumental	*>Label>Instrumental	*>Label>Instrumental	*>Label>Instrumental	*>Label>Instrumental	*>Label>Instrumental	*>Label>Instrumental
1r	.	1EM	newline	guitar	.	219.521	E:1
=130	=130	=130	=130	=130	=130	=130	=130
1r	.	1AM	.	guitar	.	220.778	A:1
=131	=131	=131	=131	=131	=131	=131	=131
1r	.	1EM	.	guitar	.	222.034	E:1
=132	=132	=132	=132	=132	=132	=132	=132
1r	.	1AM	.	guitar	.	223.291	A:1
=133	=133	=133	=133	=133	=133	=133	=133
1r	.	1EM	newline	guitar	.	224.547	E:1
=134	=134	=134	=134	=134	=134	=134	=134
1r	.	1AM	.	guitar	.	225.885	A:1
=135	=135	=135	=135	=135	=135	=135	=135
1r	.	1EM	.	guitar	.	227.224	E:1
=136	=136	=136	=136	=136	=136	=136	=136
1r	.	1AM	.	guitar	.	228.562	A:1
=137	=137	=137	=137	=137	=137	=137	=137
*>Letter>B	*>Letter>B	*>Letter>B	*>Letter>B	*>Letter>B	*>Letter>B	*>Letter>B	*>Letter>B
*>Label>Outro	*>Label>Outro	*>Label>Outro	*>Label>Outro	*>Label>Outro	*>Label>Outro	*>Label>Outro	*>Label>Outro
1r	.	1EM	newline	guitar	.	229.901	E:maj
=138	=138	=138	=138	=138	=138	=138	=138
2r	.	2AM	.	guitar	.	231.533	A:maj
4r	.	2BM	.	guitar	.	232.349	B:maj
8A	For	.	.	.	.	.	.
8BB	the	.	.	.	.	.	.
=139	=139	=139	=139	=139	=139	=139	=139
4E	words	1EM	newline	voice	.	233.165	E:maj
8E	of	.	.	.	.	.	.
8E	the	.	.	.	.	.	.
8E	pro-	.	.	.	.	.	.
8G#	-fit	.	.	.	.	.	.
4B	were	.	.	.	.	.	.
=140	=140	=140	=140	=140	=140	=140	=140
8A	wri-	2AM	.	voice	.	234.776	A:maj
8A	-tten	.	.	.	.	.	.
8A	on	.	.	.	.	.	.
8A	the	.	.	.	.	.	.
8BB	stu-	2BM	.	voice	.	235.581	B:maj
8BB	-di-	.	.	.	.	.	.
8D#	-o	.	.	.	.	.	.
[8E	wall	.	.	.	G	.	.
=141	=141	=141	=141	=141	=141	=141	=141
4E]	_	1EM	.	voice	.	236.387	E:maj
4r	.	.	.	.	.	.	.
2r	.	.	.	.	.	.	.
=142	=142	=142	=142	=142	=142	=142	=142
2r	.	1AM	.	voice	.	237.998	A:maj
8g	Con-	.	.	.	.	.	.
8g	-cert	.	.	.	.	.	.
8g#	_	.	.	.	.	.	.
[8e	hall	.	.	.	G	.	.
=143	=143	=143	=143	=143	=143	=143	=143
4e]	_	1EM	newline	guitar	.	239.609	E:1
4r	.	.	.	.	.	.	.
2r	.	.	.	.	.	.	.
=144	=144	=144	=144	=144	=144	=144	=144
1r	.	1AM	.	guitar	.	241.141	A:1
=145	=145	=145	=145	=145	=145	=145	=145
1r	.	1EM	.	guitar	.	242.673	E:1
=146	=146	=146	=146	=146	=146	=146	=146
1r	.	1AM	.	guitar	.	244.205	A:1
=147	=147	=147	=147	=147	=147	=147	=147
1r	.	1EM	newline	guitar	.	245.737	E:maj
=148	=148	=148	=148	=148	=148	=148	=148
2r	.	2AM	.	guitar	.	247.42	A:maj
4r	.	2BM	.	guitar	.	248.262	B:maj
8r	.	.	.	.	.	.	.
8BB	And	.	.	.	.	.	.
=149	=149	=149	=149	=149	=149	=149	=149
8E	e-	1EM	newline	voice	.	249.104	E:maj
4.E	-choes	.	.	.	.	.	.
4r	.	.	.	.	.	.	.
8E	to	.	.	.	.	.	.
8E	the	.	.	.	.	.	.
=150	=150	=150	=150	=150	=150	=150	=150
2A	sound	2AM	.	voice	.	250.731	A:maj
4r	.	2BM	.	voice	.	251.545	B:maj
8G	of	.	.	.	.	.	.
[8G#	sales-	.	.	.	.	.	.
=151	=151	=151	=151	=151	=151	=151	=151
8G#]	_	1EM	newline	guitar	.	252.358	E:1
4.E	-men	.	.	.	.	.	.
2r	.	.	.	.	.	.	.
=152	=152	=152	=152	=152	=152	=152	=152
*clefG2	*	*	*	*	*	*	*
2r	.	1AM	.	guitar	.	253.864	A:1
8r	.	.	.	.	.	.	.
4g	Of	.	.	.	.	.	.
[8g#	sales-	.	.	.	.	.	.
=153	=153	=153	=153	=153	=153	=153	=153
8g#]	_	1EM	.	guitar	.	255.371	E:1
4.e	-men	.	.	.	.	.	.
2r	.	.	.	.	.	.	.
=154	=154	=154	=154	=154	=154	=154	=154
8r	.	1AM	.	guitar	.	256.877	A:1
[4.g#	Of	.	.	.	.	.	.
4.g#]	_	.	.	.	.	.	.
[8ee	sales-	.	.	.	.	.	.
=155	=155	=155	=155	=155	=155	=155	=155
8ee]	_	1EM	newline	guitar	.	258.383	E:1
4.e	-men	.	.	.	.	.	.
2r	.	.	.	.	.	.	.
=156	=156	=156	=156	=156	=156	=156	=156
1r	.	1AM	.	guitar	.	259.902	A:1
=157	=157	=157	=157	=157	=157	=157	=157
1r	.	1EM	.	guitar	.	261.421	E:1
=158	=158	=158	=158	=158	=158	=158	=158
1r	.	1AM	.	guitar	.	262.941	A:1
=159	=159	=159	=159	=159	=159	=159	=159
1r	.	1EM	newline	guitar	.	264.46	E:1
=160	=160	=160	=160	=160	=160	=160	=160
1r	.	1AM	.	guitar	.	265.993	A:1
=161	=161	=161	=161	=161	=161	=161	=161
1r	.	1EM	.	guitar	.	267.527	E:1
=162	=162	=162	=162	=162	=162	=162	=162
1r	.	1AM	.	guitar	.	269.06	A:1
=163	=163	=163	=163	=163	=163	=163	=163
1r	.	1EM	newline	guitar	.	270.594	E:1
=164	=164	=164	=164	=164	=164	=164	=164
1r	.	1AM	.	guitar	.	272.126	A:1
=165	=165	=165	=165	=165	=165	=165	=165
1r	.	1EM	.	guitar	.	273.658	E:1
=166	=166	=166	=166	=166	=166	=166	=166
1r	.	1AM	.	guitar	.	275.19	A:1
=167	=167	=167	=167	=167	=167	=167	=167
1r	.	1EM	newline	guitar	.	276.722	E:1
=168	=168	=168	=168	=168	=168	=168	=168
1r	.	1AM	.	guitar	.	278.241	A:1
=169	=169	=169	=169	=169	=169	=169	=169
1r	.	1EM	.	guitar	.	279.759	E:1
=170	=170	=170	=170	=170	=170	=170	=170
1r	.	1AM	.	guitar	.	281.278	A:1
=171	=171	=171	=171	=171	=171	=171	=171
1r	.	1EM	newline	guitar	.	282.796	E:1
=172	=172	=172	=172	=172	=172	=172	=172
1r	.	1AM	.	guitar	.	284.375	A:1
=173	=173	=173	=173	=173	=173	=173	=173
1r	.	1EM	.	guitar	.	285.953	E:1
=174	=174	=174	=174	=174	=174	=174	=174
1r	.	1EM	.	guitar	.	287.531	E:1
=175	=175	=175	=175	=175	=175	=175	=175
1r	.	1EM	newline	guitar	.	289.11	E:1
=176	=176	=176	=176	=176	=176	=176	=176
1r	.	1EM	.	guitar	.	290.7	E:1
r;	.	1r;	.	r	.	295.869	N.C.
r;	.	1r;	.	r	.	297.509	N.C.
*-	*-	*-	*-	*-	*-	*-	*-
!!!BillboardChartDate: 1980/03/08
!!!BillboardPeak: 51
!!!BillboardWeeksOnChart: 8
!!!COC: Rush
!!!ENC: Nathaniel Condit-Schultz
!!!EST: Awating manual error checking and editing.
!!!OTL: The Spirit Of Radio
!!!RDF**chordsym: original McGill chord annotation + (implied pitch class set, with bass pitch in first position)
!!!RDF**harmony: **recip + pitch class of root + harmonic quality
!!!RDF**leadinstrument: original McGill primary instrumentation annotation
!!!RDF**phrase: newline = linebreak in original McGill transcription
!!!RDF**timestamp: McGill audio timestamp in seconds
!!!RDT: 2017/01/12/
!!!SampleActualRank: 62
!!!SampleID#: 0105
!!!SampleTargetRank: 60
